X: 4407
T: Bond Store, The
R: reel
M: 4/4
K: Gmajor
|:G B3 dBGB|c e3 dBGB|c e3 dBGB|AdBA AGED|G B3 dBGB|
c e3 dBGB|1 c e3 dBGB|AGFA G3 z:|2 cdeg dBGB|AGFA G3 z||
|:dgge edBe|d G3 AGEG|DGGD ED Bd|e2 ab agef|
gB3 G3B|c2 Bc AGED|Bdeg dBGB|AGFA G3 z:|

